X:296
T:Reel 296
M:4/4
K:Dmaj
L:1/8
F2AG EFGE|ABGE CDDF|F>G (3FED EFGE|ABGE FDDE|F2FD EA,A,G,|A,FGA GECB|AGED DCDF|ABcA GECE|Addc d2cd|eAAB cAGE|Addc d2ed|cAGE EFGE|Addc d2cd|eAAB cdec|dfec dfed|cAGE EDD2|
